icon-themes/sifr_svg/cmd/lc_spacepara1.svg

<svg viewBox="0 0 24 24" xmlns="http://www.w3.org/2000/svg"><path d="m6.1640625 2-3.8828125 4.25c-.19095.19768-.28125.44055-.28125.75v.5878906.4121094h1c.484318 0 .669482-.2977957 1-.6835938l3-3.3164062 3 3.3164062c.339244.3456951.440254.6835938 1 .6835938h1v-.4121094-.5878906c0-.354218-.0903-.55232-.28125-.75l-3.9394531-4.25zm6.8359375 5v2h9v-2zm0 4v2h9v-2zm0 4v2h9v-2zm-11 1v.412109.587891c0 .30945.0903.55232.28125.75l3.8828125 4.25h1.6152344l3.9394531-4.25c.19095-.19768.28125-.395782.28125-.75v-.587891-.412109h-1c-.455742 0-.660756.337899-1 .683594l-3 3.316406-3-3.316406c-.330518-.385798-.4783217-.683594-1-.683594z" fill="#555753"/></svg>

<svg xmlns="http://www.w3.org/2000/svg" viewBox="0 0 24 24">
  <path
     style="fill:#555753"
     d="M 6.1640625,2 2.28125,6.25 C 2.0903,6.44768 2,6.69055 2,7 V 7.5878906 8 H 3 C 3.484318,8 3.669482,7.7022043 4,7.3164062 L 7,4 10,7.3164062 C 10.339244,7.6621013 10.440254,8 11,8 h 1 V 7.5878906 7 C 12,6.645782 11.9097,6.44768 11.71875,6.25 L 7.7792969,2 Z M 13,7 v 2 h 9 V 7 Z m 0,4 v 2 h 9 v -2 z m 0,4 v 2 h 9 V 15 Z M 2,16 V 16.412109 17 c 0,0.30945 0.0903,0.55232 0.28125,0.75 L 6.1640625,22 H 7.7792969 L 11.71875,17.75 C 11.9097,17.55232 12,17.354218 12,17 V 16.412109 16 h -1 c -0.455742,0 -0.660756,0.337899 -1,0.683594 L 7,20 4,16.683594 C 3.669482,16.297796 3.5216783,16 3,16 Z"
     />
</svg>
